Adwaita++-Light/panel/16/num-lock-on.svg

<svg height="16" width="16" xmlns="http://www.w3.org/2000/svg">
  <path d="m3.625 1a1.7500384 1.6924769 0 0 0 -1.7402344 1.5058594l-.875 7.6152346a1.7500384 1.6924769 0 0 0 1.7402344 1.878906h10.5a1.7500384 1.6924769 0 0 0 1.740234-1.878906l-.875-7.6152346a1.7500384 1.6924769 0 0 0 -1.740234-1.5058594zm3.375 2h2v6h1v1h-4v-1h1v-4h-1v-1h1zm-6 9.300781v.478516c0 1.0605.9084203 2.220703 1.96875 2.220703h10.0625c1.060417 0 1.96875-1.160203 1.96875-2.220703v-.478516c-.465463.424374-1.071928.697266-1.75.697266h-10.5c-.6777221 0-1.2848863-.272892-1.75-.697266z" fill="#444"/>
</svg>

<svg xmlns="http://www.w3.org/2000/svg" width="16" height="16" version="1.1">
 <defs>
  <style id="current-color-scheme" type="text/css">
   .ColorScheme-Text { color:#444444; } .ColorScheme-Highlight { color:#4285f4; }
  </style>
 </defs>
 <path style="fill:currentColor" class="ColorScheme-Text" d="M 3.625 1 A 1.7500384 1.6924769 0 0 0 1.8847656 2.5058594 L 1.0097656 10.121094 A 1.7500384 1.6924769 0 0 0 2.75 12 L 13.25 12 A 1.7500384 1.6924769 0 0 0 14.990234 10.121094 L 14.115234 2.5058594 A 1.7500384 1.6924769 0 0 0 12.375 1 L 3.625 1 z M 7 3 L 9 3 L 9 9 L 10 9 L 10 10 L 6 10 L 6 9 L 7 9 L 7 5 L 6 5 L 6 4 L 7 4 L 7 3 z M 1 12.300781 L 1 12.779297 C 1 13.839797 1.9084203 15 2.96875 15 L 13.03125 15 C 14.091667 15 15 13.839797 15 12.779297 L 15 12.300781 C 14.534537 12.725155 13.928072 12.998047 13.25 12.998047 L 2.75 12.998047 C 2.0722779 12.998047 1.4651137 12.725155 1 12.300781 z"/>
</svg>
